!!!!SEGMENT: pl-kozmzk--mzk-m-137--007_cwiklicz-boleslaw-jan--badz-zdrowa.krn
!!!cenid: 18xx:2965
!!!COM: Ćwiklicz, Bolesław Jan
!!!COM-rismid: pe41023611
!!!CDT: ~1800-~1899
!!!CNT: Polish
!!!OTL: Bądź zdrowa
!!!PDT:
!!!AGN: Secular
!!!SMS-siglum: PL-KOZmzk
!!!SMS-shelfmark: mzk/m/137
!!!SMS-shelfwork: 007 W
!!!SMS-variant:
!!!SMS-altvar:
!!!NIFC-rismid: 1001084050
!!!URL-scan: https://repozytorium.nifc.pl/islandora/object/pl-kozmzk%3A1738/datastream/PDF/view
!!!ONB-nifc:
**kern	**text	**kern	**text	**dynam
*part1	*part1	*part1	*part1	*part1
*staff2	*staff2	*staff1	*staff1	*
*clefF4	*	*clefG2	*	*
*k[]	*	*k[]	*	*
*M3/4	*	*M3/4	*	*
=1	=1	=1	=1	=1
*^	*	*^	*	*
!	!	!	!LO:TX:a:t=Towarzystwom śpiewackim we Lwowie.	!	!	!
!	!	!	!LO:TX:a:t=7. Bądź zdrowa!...	!	!	!
!LO:TX:a:t=Wolno.	!	!	!LO:TX:a:t=Słowa K. Tetmajera	!	!	!
8r	8r	.	8r	8r	.	p <
8A/	8D\	.	8ff/	8dd\	Bądź	.
4A/	4C#X\	.	4aa/	4ee\	zdro-	[ >
4G#X/	4E\	.	4ee/	4b\	-wa!	.
=2	=2	=2	=2	=2	=2	=2
8A/L	8F\L	.	8dd/L	8b\L	To	] <
8A/J	8E\J	.	8ee/J	8cc#X\J	o-	.
4A/	8D\L	.	4.gg/	4.ee\	-sta-	[[
.	8C#X\J	.	.	.	.	.
4A/	4D\	.	.	.	.	.
.	.	.	8ff/	8dd\	-tni	>
=3	=3	=3	=3	=3	=3	=3
!	!LO:TX:t=P:problem:błędne wyświetlanie łuku	!	!	!LO:TX:t=P:problem:błędne wyświetlanie łuku	!	!
(4G#X/	(>4E\	.	2ee/	(>4b\	raz,	.
4A/)	4AA\)	.	.	4cc#X\)	.	.
4A/	(8F\L	.	4dd/	4dd\	że	] <
.	8E\J)	.	.	.	.	.
=4	=4	=4	=4	=4	=4	=4
4A/	(8D\L	.	4.ff/	4.dd\	mó-	.
!	!	!	!LO:TX:a:t=muzyka B. Ćwiklina	!	!	!
.	8C\J)	.	.	.	.	.
4G/	(8BB\L	.	.	.	.	.
.	8C\J)	.	8ee/L	8ccn\L	-wię	[
8F/L	8D\L	.	8dd/	8a\	ko-	.
8G/J	8G\J	.	8b/J	8b\J	-mu:	.
=5	=5	=5	=5	=5	=5	=5
8A/L	8F\L	.	8cc/L	8a\L	by-	.
8A/J	8F\J	.	8dd/J	8b\J	-waj	.
4G#X/	(8E\L	.	4ee/	4b\	zdro-	>
.	8D\J)	.	.	.	.	.
4E/	4C\	.	4a/	4a\	-wa	.
!!LO:LB:g=original
=6	=6	=6	=6	=6	=6	=6
4A/	4D\	.	4ff/	4dd\	da-	] mf <
4.G#X/	4.E\	.	4.ee/	4.cc\	-wno,	.
8A/	8F\	.	8dd/	8b\	ach!	.
=7	=7	=7	=7	=7	=7	=7
2B/	(8Gn\L	.	(4aa/	2dd\	da-	[
.	8F\J	.	.	.	.	.
.	8E\L	.	4.gg/)	.	.	.
.	8F\J)	.	.	.	.	.
4G/	(8E\L	.	.	4b\	.	.
.	8D\J)	.	8ff/	.	-wno	.
=8	=8	=8	=8	=8	=8	=8
(8G/L	4C\	.	8ee/L	8cc\L	mi-	>
8E/J)	.	.	8cc/J	8g\J	-nał	.
!	!	!	!	!LO:TX:t=P:problem:błędne wyświetlanie łuku	!	!
4D/	(8FF\L	.	2a/	(>4f\	czas...	.
.	8GG\J)	.	.	.	.	.
4C/	4AA\	.	.	4e\)	.	.
=9	=9	=9	=9	=9	=9	=9
8r	8r	.	8r	8r	.	] p <
8A/	8F\	.	8cc/	8a\	Bądź	.
4G#X/	(8E\L	.	4ee/	4b\	zdro-	[ >
.	8D\J)	.	.	.	.	.
8E/L	(8C\L	.	4a/	4a\	-wa...	.
8F/J	8D\J)	.	.	.	.	.
=10	=10	=10	=10	=10	=10	=10
4E/	4AA\	.	8r	8r	.	] pp
.	.	.	8cc/	8a\	Bądź	<
4E/	(8BB\L	.	4ee/	4g#X\	zdro-	.
.	8C\J)	.	.	.	.	.
4F/	4D\	.	4b/	(>8a\L	-wa!	[ >
.	.	.	.	8g#\J)	.	]]
!!LO:LB:g=original
=11	=11	=11	=11	=11	=11	=11
*	*	*	*	*	*	*^
!	!	!	!	!	!	!	!LO:HP:b=2
8E/L	8C\L	.	8a/L	8a\L	To	<	<
8F/J	8D\J	.	8b/J	8a\J	o-	.	[[
!	!	!	!	!	!	!	!LO:HP:b=2
4Gn/	4E\	.	(8cc/L	4a\	-sta-	.	>
.	.	.	8b/J	.	.	.	.
!	!	!	!	!	!	!	!LO:HP:b=2
4F/	4D\	.	8dd/L)	4a\	-tni	[ >	]] <
.	.	.	8cc/J	.	.	.	.
=12	=12	=12	=12	=12	=12	=12	=12
8E/L	8C\L	(o-	[2.a/	[2.a\	raz...	.	.
8F/J	8D\J	.	.	.	.	.	.
4.G/	4.E\	-sta-	.	.	.	.	[[
!	!	!	!	!	!	!	!LO:HP:b=2
8F/	8D\	-tni	.	.	.	.	>
=13	=13	=13	=13	=13	=13	=13	=13
2E/	2AA\	raz...)	2a/]	2a\]	.	] <	.
4A/	4F\	(Bądź	4cc/	4a\	Bądź	.	]
*	*	*	*	*	*	*v	*v
=14	=14	=14	=14	=14	=14	=14
2G#X/	(4E\	zdro-	2ee/	2b\	zdro-	.
.	4D\	.	.	.	.	.
(4E/	4C\	.	[4a/	(4a\	-wa!...)	[ >
=15	=15	=15	=15	=15	=15	=15
4D/	8FF\L	.	2a/]	4f\	.	.
.	8GG\J)	.	.	.	.	.
4C/)	4AA\	-wa!)	.	4e\)	.	.
4r	4r	.	4r	4r	.	]
*v	*v	*	*	*	*	*
*	*	*v	*v	*	*
==	==	==	==	==
*-	*-	*-	*-	*-
!!!system-decoration: [(s1,s2)]
!!!ENC: Marcin Jachim
!!!END: 2021-08-11
!!!ENC: Kamil Watkowski
!!!END: 2021-09-08
!!!RDF**kern: > = above
!!!RDF**kern: < = below
